X:50
T:pant y pistyll
R:tamed cenol
B:alawon fy ngwlad - bennett
O:traditional welsh
Z:crm
M:6/8
L:1/8
Q:3/8=100
K:G
G2G B2d|e2c d2B|AGA B2G|E2F G2>:||
e2d e2f|gee dBB|cde g2e|def g3|
G2G B2d|e2c d2B|AGA B2G|E2F G2>||
